assets/sonr-icons/adjust.svg

<svg xmlns="http://www.w3.org/2000/svg" width="24" height="24" fill="none" viewBox="0 0 24 24"><path fill="#000" d="M19 4C19.552 4 20 4.448 20 5V7C20 7.552 19.552 8 19 8C18.448 8 18 7.552 18 7V5C18 4.448 18.448 4 19 4ZM13 17C13 16.448 12.552 16 12 16C11.448 16 11 16.448 11 17V19C11 19.552 11.448 20 12 20C12.552 20 13 19.552 13 19V17ZM12 4C12.552 4 13 4.448 13 5V9C13 9.552 12.552 10 12 10C11.448 10 11 9.552 11 9V5C11 4.448 11.448 4 12 4ZM6 5C6 4.448 5.552 4 5 4C4.448 4 4 4.448 4 5V9C4 9.552 4.448 10 5 10C5.552 10 6 9.552 6 9V5ZM6 17C6 16.448 5.552 16 5 16C4.448 16 4 16.448 4 17V19C4 19.552 4.448 20 5 20C5.552 20 6 19.552 6 19V17ZM20 15C20 14.448 19.552 14 19 14C18.448 14 18 14.448 18 15V19C18 19.552 18.448 20 19 20C19.552 20 20 19.552 20 19V15Z"/><path fill="#000" d="M16 9C16 10.657 17.343 12 19 12C20.657 12 22 10.657 22 9C22 7.343 20.657 6 19 6C17.343 6 16 7.343 16 9ZM12 18C10.343 18 9 16.657 9 15C9 13.343 10.343 12 12 12C13.657 12 15 13.343 15 15C15 16.657 13.657 18 12 18ZM5 14C3.343 14 2 12.657 2 11C2 9.343 3.343 8 5 8C6.657 8 8 9.343 8 11C8 12.657 6.657 14 5 14Z"/></svg>

<svg xmlns="http://www.w3.org/2000/svg" width="24" height="24" fill="none"><path fill="currentColor" d="M19 4a1 1 0 0 1 1 1v2a1 1 0 0 1-2 0V5a1 1 0 0 1 1-1m-6 13a1 1 0 0 0-2 0v2a1 1 0 0 0 2 0zM12 4a1 1 0 0 1 1 1v4a1 1 0 0 1-2 0V5a1 1 0 0 1 1-1M6 5a1 1 0 0 0-2 0v4a1 1 0 0 0 2 0zm0 12a1 1 0 0 0-2 0v2a1 1 0 0 0 2 0zm14-2a1 1 0 0 0-2 0v4a1 1 0 0 0 2 0z"/><path fill="currentColor" d="M16 9a3 3 0 1 0 6 0 3 3 0 0 0-6 0m-4 9a3 3 0 1 1 0-6 3 3 0 0 1 0 6m-7-4a3 3 0 1 1 0-6 3 3 0 0 1 0 6"/></svg>
